src/assets/filled/NoteAdd.svg

<?xml version="1.0" encoding="UTF-8"?>
<svg width="24" height="24" viewBox="0 0 24 24" xmlns="http://www.w3.org/2000/svg">
 <path d="m8.29 6.29c-0.42 0-0.75-0.34-0.75-0.75v-2.79c0-0.41 0.33-0.75 0.75-0.75s0.75 0.34 0.75 0.75v2.78c0 0.42-0.33 0.76-0.75 0.76z"/>
 <path d="m15.71 6.29c-0.42 0-0.75-0.34-0.75-0.75v-2.79c0-0.42 0.34-0.75 0.75-0.75 0.42 0 0.75 0.34 0.75 0.75v2.78c0 0.42-0.33 0.76-0.75 0.76z"/>
 <path d="m19.57 4.5c-0.66-0.49-1.61-0.02-1.61 0.81v0.1c0 1.17-0.84 2.25-2.01 2.37-1.35 0.14-2.49-0.92-2.49-2.24v-1.04c0-0.55-0.45-1-1-1h-0.92c-0.55 0-1 0.45-1 1v1.04c0 0.79-0.41 1.49-1.03 1.88-0.09 0.06-0.19 0.11-0.29 0.16-0.09 0.05-0.19 0.09-0.3 0.12-0.12 0.04-0.25 0.07-0.39 0.08-0.16 0.02-0.32 0.02-0.48 0-0.14-0.01-0.27-0.04-0.39-0.08-0.1-0.03-0.2-0.07-0.3-0.12s-0.2-0.1-0.29-0.16c-0.63-0.44-1.03-1.2-1.03-2.01v-0.1c0-0.77-0.82-1.23-1.47-0.9-0.01 0.01-0.02 0.01-0.03 0.02-0.04 0.02-0.07 0.04-0.11 0.07-0.03 0.03-0.07 0.05-0.1 0.08-0.28 0.22-0.53 0.47-0.74 0.74-0.11 0.12-0.2 0.25-0.28 0.38-0.01 0.01-0.02 0.02-0.03 0.04-0.09 0.13-0.17 0.28-0.24 0.42-0.02 0.02-0.03 0.03-0.03 0.05-0.06 0.12-0.12 0.24-0.16 0.37-0.03 0.05-0.04 0.09-0.06 0.14-0.06 0.15-0.1 0.3-0.14 0.45-0.04 0.14-0.07 0.29-0.09 0.44-0.02 0.11-0.03 0.22-0.04 0.34-0.01 0.14-0.02 0.28-0.02 0.42v8.76c0 2.69 2.18 4.87 4.87 4.87h9.26c2.69 0 4.87-2.18 4.87-4.87v-8.76c0-1.59-0.76-2.98-1.93-3.87zm-7.57 11.75h-1.69v1.75c0 0.41-0.34 0.75-0.75 0.75-0.42 0-0.75-0.34-0.75-0.75v-1.75h-1.81c-0.41 0-0.75-0.34-0.75-0.75s0.34-0.75 0.75-0.75h1.81v-1.75c0-0.41 0.33-0.75 0.75-0.75 0.41 0 0.75 0.34 0.75 0.75v1.75h1.69c0.41 0 0.75 0.34 0.75 0.75s-0.34 0.75-0.75 0.75z"/>
</svg>

<svg width="24" height="24" viewBox="0 0 24 24"  xmlns="http://www.w3.org/2000/svg">
<path d="M8.29004 6.29C7.87004 6.29 7.54004 5.95 7.54004 5.54V2.75C7.54004 2.34 7.87004 2 8.29004 2C8.71004 2 9.04004 2.34 9.04004 2.75V5.53C9.04004 5.95 8.71004 6.29 8.29004 6.29Z" />
<path d="M15.71 6.29C15.29 6.29 14.96 5.95 14.96 5.54V2.75C14.96 2.33 15.3 2 15.71 2C16.13 2 16.46 2.34 16.46 2.75V5.53C16.46 5.95 16.13 6.29 15.71 6.29Z" />
<path d="M19.57 4.5C18.91 4.01 17.96 4.48 17.96 5.31V5.41C17.96 6.58 17.12 7.66 15.95 7.78C14.6 7.92 13.46 6.86 13.46 5.54V4.5C13.46 3.95 13.01 3.5 12.46 3.5H11.54C10.99 3.5 10.54 3.95 10.54 4.5V5.54C10.54 6.33 10.13 7.03 9.51 7.42C9.42 7.48 9.32 7.53 9.22 7.58C9.13 7.63 9.03 7.67 8.92 7.7C8.8 7.74 8.67 7.77 8.53 7.78C8.37 7.8 8.21 7.8 8.05 7.78C7.91 7.77 7.78 7.74 7.66 7.7C7.56 7.67 7.46 7.63 7.36 7.58C7.26 7.53 7.16 7.48 7.07 7.42C6.44 6.98 6.04 6.22 6.04 5.41V5.31C6.04 4.54 5.22 4.08 4.57 4.41C4.56 4.42 4.55 4.42 4.54 4.43C4.5 4.45 4.47 4.47 4.43 4.5C4.4 4.53 4.36 4.55 4.33 4.58C4.05 4.8 3.8 5.05 3.59 5.32C3.48 5.44 3.39 5.57 3.31 5.7C3.3 5.71 3.29 5.72 3.28 5.74C3.19 5.87 3.11 6.02 3.04 6.16C3.02 6.18 3.01 6.19 3.01 6.21C2.95 6.33 2.89 6.45 2.85 6.58C2.82 6.63 2.81 6.67 2.79 6.72C2.73 6.87 2.69 7.02 2.65 7.17C2.61 7.31 2.58 7.46 2.56 7.61C2.54 7.72 2.53 7.83 2.52 7.95C2.51 8.09 2.5 8.23 2.5 8.37V17.13C2.5 19.82 4.68 22 7.37 22H16.63C19.32 22 21.5 19.82 21.5 17.13V8.37C21.5 6.78 20.74 5.39 19.57 4.5ZM12 16.25H10.31V18C10.31 18.41 9.97 18.75 9.56 18.75C9.14 18.75 8.81 18.41 8.81 18V16.25H7C6.59 16.25 6.25 15.91 6.25 15.5C6.25 15.09 6.59 14.75 7 14.75H8.81V13C8.81 12.59 9.14 12.25 9.56 12.25C9.97 12.25 10.31 12.59 10.31 13V14.75H12C12.41 14.75 12.75 15.09 12.75 15.5C12.75 15.91 12.41 16.25 12 16.25Z" />
</svg>
